X: 41049
T: Trip To Michigan, The
R: barndance
M: 4/4
K: Gmajor
BA|:G2EG D2 Bc|dBGB AGEF|
(3GAG EG D2 Bc|1 dBGB A2 BA:|2 dBGB A2 Bc||
dBGB AGEF|(3GAG EG D2 Bc|
dBGB AGEF|1 GABA GABc:|2 GABA GABA||

